src/assets/django.svg

<?xml version="1.0" encoding="utf-8"?>
<!-- Generator: Adobe Illustrator 12.0.1, SVG Export Plug-In . SVG Version: 6.00 Build 51448)  -->
<!DOCTYPE svg PUBLIC "-//W3C//DTD SVG 1.0//EN" "http://www.w3.org/TR/2001/REC-SVG-20010904/DTD/svg10.dtd" [
	<!ENTITY ns_svg "http://www.w3.org/2000/svg">
	<!ENTITY ns_xlink "http://www.w3.org/1999/xlink">
]>
<svg  version="1.0" id="Layer_1" xmlns="&ns_svg;" xmlns:xlink="&ns_xlink;" width="436.505" height="152.503"
	 viewBox="0 0 436.505 152.503" overflow="visible" enable-background="new 0 0 436.505 152.503" xml:space="preserve">
<g>
	<g>
		<path fill="#092E20" d="M51.464,0h23.872v110.496c-12.246,2.325-21.237,3.255-31.002,3.255C15.191,113.75,0,100.576,0,75.308
			c0-24.337,16.122-40.147,41.078-40.147c3.875,0,6.82,0.309,10.386,1.239V0z M51.464,55.62c-2.79-0.929-5.115-1.239-8.06-1.239
			c-12.091,0-19.067,7.441-19.067,20.461c0,12.712,6.666,19.687,18.912,19.687c2.634,0,4.805-0.155,8.215-0.619V55.62z"/>
		<path fill="#092E20" d="M113.312,36.865v55.338c0,19.067-1.395,28.212-5.58,36.118c-3.876,7.597-8.992,12.401-19.532,17.672
			l-22.167-10.541c10.541-4.96,15.656-9.299,18.911-15.967c3.411-6.82,4.497-14.726,4.497-35.497V36.865H113.312z M89.441,0.127
			h23.871v24.492H89.441V0.127z"/>
		<path fill="#092E20" d="M127.731,42.29c10.542-4.959,20.617-7.129,31.623-7.129c12.246,0,20.306,3.254,23.872,9.61
			c2.014,3.565,2.634,8.215,2.634,18.137v48.517c-10.697,1.55-24.182,2.636-34.102,2.636c-19.996,0-28.988-6.978-28.988-22.478
			c0-16.742,11.936-24.492,41.234-26.973v-5.27c0-4.34-2.17-5.889-8.216-5.889c-8.835,0-18.756,2.48-28.058,7.286V42.29z
			 M165.089,80.268c-15.812,1.55-20.927,4.031-20.927,10.231c0,4.65,2.946,6.82,9.456,6.82c3.566,0,6.82-0.309,11.471-1.084V80.268z
			"/>
		<path fill="#092E20" d="M197.487,40.585c14.105-3.72,25.731-5.424,37.512-5.424c12.246,0,21.082,2.789,26.354,8.215
			c4.96,5.114,6.509,10.694,6.509,22.632v46.812H243.99V66.938c0-9.145-3.1-12.557-11.625-12.557c-3.255,0-6.2,0.31-11.007,1.705
			v56.734h-23.871V40.585z"/>
		<path fill="#092E20" d="M277.142,125.842c8.372,4.34,16.742,6.354,25.577,6.354c15.655,0,22.321-6.354,22.321-21.546
			c0-0.155,0-0.31,0-0.465c-4.65,2.324-9.301,3.255-15.5,3.255c-20.927,0-34.26-13.796-34.26-35.652
			c0-27.129,19.688-42.473,54.564-42.473c10.232,0,19.688,1.084,31.159,3.409l-8.174,17.219c-6.356-1.24-0.509-0.166-5.312-0.631
			v2.481l0.309,10.074l0.154,13.022c0.155,3.254,0.155,6.51,0.311,9.765c0,2.945,0,4.341,0,6.511c0,20.462-1.705,30.072-6.82,37.977
			c-7.441,11.627-20.307,17.362-38.598,17.362c-9.301,0-17.36-1.395-25.732-4.651V125.842z M324.576,54.536c-0.31,0-0.619,0-0.774,0
			h-1.706c-4.649-0.155-10.074,1.084-13.796,3.409c-5.734,3.256-8.681,9.147-8.681,17.517c0,11.937,5.892,18.757,16.432,18.757
			c3.255,0,5.891-0.621,8.99-1.55v-1.706v-6.509c0-2.79-0.154-5.892-0.154-9.146l-0.154-11.005l-0.156-7.906V54.536z"/>
		<path fill="#092E20" d="M398.062,34.85c23.871,0,38.443,15.037,38.443,39.373c0,24.958-15.19,40.614-39.373,40.614
			c-23.873,0-38.599-15.037-38.599-39.218C358.534,50.505,373.726,34.85,398.062,34.85z M397.595,95.614
			c9.147,0,14.573-7.596,14.573-20.772c0-13.02-5.271-20.771-14.415-20.771c-9.457,0-14.884,7.597-14.884,20.771
			C382.87,88.019,388.296,95.614,397.595,95.614z"/>
	</g>
</g>
</svg>

<svg width="437" height="153" viewBox="0 0 437 153" fill="none" xmlns="http://www.w3.org/2000/svg">
<g clip-path="url(#clip0_54_18)">
<path d="M51.464 0H75.336V110.496C63.09 112.821 54.099 113.751 44.334 113.751C15.191 113.75 0 100.576 0 75.308C0 50.971 16.122 35.161 41.078 35.161C44.953 35.161 47.898 35.47 51.464 36.4V0ZM51.464 55.62C48.674 54.691 46.349 54.381 43.404 54.381C31.313 54.381 24.337 61.822 24.337 74.842C24.337 87.554 31.003 94.529 43.249 94.529C45.883 94.529 48.054 94.374 51.464 93.91V55.62Z" fill="black"/>
<path d="M113.312 36.865V92.203C113.312 111.27 111.917 120.415 107.732 128.321C103.856 135.918 98.74 140.722 88.2 145.993L66.033 135.452C76.574 130.492 81.689 126.153 84.944 119.485C88.355 112.665 89.441 104.759 89.441 83.988V36.865H113.312ZM89.441 0.127014H113.312V24.619H89.441V0.127014Z" fill="black"/>
<path d="M127.731 42.29C138.273 37.331 148.348 35.161 159.354 35.161C171.6 35.161 179.66 38.415 183.226 44.771C185.24 48.336 185.86 52.986 185.86 62.908V111.425C175.163 112.975 161.678 114.061 151.758 114.061C131.762 114.061 122.77 107.083 122.77 91.583C122.77 74.841 134.706 67.091 164.004 64.61V59.34C164.004 55 161.834 53.451 155.788 53.451C146.953 53.451 137.032 55.931 127.73 60.737L127.731 42.29ZM165.089 80.268C149.277 81.818 144.162 84.299 144.162 90.499C144.162 95.149 147.108 97.319 153.618 97.319C157.184 97.319 160.438 97.01 165.089 96.235V80.268Z" fill="black"/>
<path d="M197.487 40.585C211.592 36.865 223.218 35.161 234.999 35.161C247.245 35.161 256.081 37.95 261.353 43.376C266.313 48.49 267.862 54.07 267.862 66.008V112.82H243.99V66.938C243.99 57.793 240.89 54.381 232.365 54.381C229.11 54.381 226.165 54.691 221.358 56.086V112.82H197.487V40.585Z" fill="black"/>
<path d="M277.142 125.842C285.514 130.182 293.884 132.196 302.719 132.196C318.374 132.196 325.04 125.842 325.04 110.65C325.04 110.495 325.04 110.34 325.04 110.185C320.39 112.509 315.739 113.44 309.54 113.44C288.613 113.44 275.28 99.644 275.28 77.788C275.28 50.659 294.968 35.315 329.844 35.315C340.076 35.315 349.532 36.399 361.003 38.724L352.829 55.943C346.473 54.703 352.32 55.777 347.517 55.312V57.793L347.826 67.867L347.98 80.889C348.135 84.143 348.135 87.399 348.291 90.654C348.291 93.599 348.291 94.995 348.291 97.165C348.291 117.627 346.586 127.237 341.471 135.142C334.03 146.769 321.164 152.504 302.873 152.504C293.572 152.504 285.513 151.109 277.141 147.853V125.842H277.142ZM324.576 54.536C324.266 54.536 323.957 54.536 323.802 54.536H322.096C317.447 54.381 312.022 55.62 308.3 57.945C302.566 61.201 299.619 67.092 299.619 75.462C299.619 87.399 305.511 94.219 316.051 94.219C319.306 94.219 321.942 93.598 325.041 92.669V90.963V84.454C325.041 81.664 324.887 78.562 324.887 75.308L324.733 64.303L324.577 56.397V54.536H324.576Z" fill="black"/>
<path d="M398.062 34.85C421.933 34.85 436.505 49.887 436.505 74.223C436.505 99.181 421.315 114.837 397.132 114.837C373.259 114.837 358.533 99.8 358.533 75.619C358.534 50.505 373.726 34.85 398.062 34.85ZM397.595 95.614C406.742 95.614 412.168 88.018 412.168 74.842C412.168 61.822 406.897 54.071 397.753 54.071C388.296 54.071 382.869 61.668 382.869 74.842C382.87 88.019 388.296 95.614 397.595 95.614Z" fill="black"/>
</g>
<defs>
<clipPath id="clip0_54_18">
<rect width="436.505" height="152.503" fill="white"/>
</clipPath>
</defs>
</svg>
